img/guot/qout-right.svg

<svg width="70" height="49" viewBox="0 0 70 49" fill="none" xmlns="http://www.w3.org/2000/svg">
<path opacity="0.4" d="M5 48.4932H20L30 29.4574V0.903809H0V29.4574H15L5 48.4932ZM45 48.4932H60L70 29.4574V0.903809H40V29.4574H55L45 48.4932Z" fill="#F2F2F2"/>
</svg>

<svg width="70" height="49" fill="none" xmlns="http://www.w3.org/2000/svg"><path opacity=".4" d="M5 48.493h15l10-19.036V.904H0v28.553h15L5 48.493zm40 0h15l10-19.036V.904H40v28.553h15L45 48.493z" fill="#F2F2F2"/></svg>
